X:1540
T: Martin Talty's
O:ireland
T: McGreavy's
O:ireland
S: irtrad-l, L. Mallette, 1/95
C: Attributed to Martin Talty (notes to Front Hall Records 018)
M: 6/8
S: Bulmer and Sharpley's Music From Ireland, volume 4, tune 57
S: (McGreavy's), from the playing of fiddler Jimmy McHugh
N: Not sure where the title McGreavy's originated.
R: DJ
I: flute/whistle players can substitute an E for the low B in
I: measures 2 and 6.
K: G
A|B2e dBA|BAG EDB|DEG Bed|BAG ABd|
|e/f/ge dBA|BAG EDB|DEG Bed|BAF E2:|
B|e2f gfe|beg fed|Bde gfg|ged e2f|
|g2f edB|AFD FGA|dc/d/e fed|BAF E2:|
